X:1
T:Moultrie, 87.87 D
T:Moultrie, 87.87 D
T:Gerard Francis Cobb, 1890
T:Public Domain Courtesy of the Cyber Hymnal™
C:Gerard Francis Cobb, 1890
Z:Public Domain
Z:Courtesy of the Cyber Hymnal™
%%score ( 1 2 ) ( 3 4 )
L:1/8
Q:1/4=110
M:4/4
K:G
V:1 treble 
V:2 treble 
V:3 bass 
V:4 bass 
V:1
 [Gd]3 [DG] [DG]2 [DF]2 | [FB]3 [FA] [FA]2 G2 | [Ad]3 [Ac] [GB]2 G2 | [GA]2 [FB]2 [DG]4 | %4
 D3 [DG] [DG]2 [DF]2 | [FB]3 [FA] [EA]2 [EG]2 | [Dd]3 [Dc] [DB]2 G2 | [GA]2 [FB]2 [DG]4 | %8
 [Gd]3 [Ad] [^Ge]2 [EB]2 | [Ec]3 [Ee] [Ad]2 [GB]2 | [GB]3 [AB] [GB]2 [B^c]2 | [Bd]2 [^A^c]2 [FB]4 | %12
 [=FB]3 [FB] [EB]2 [EA]2 | [_EA]3 [EA] [DA]2 [DG]2 | [Gd]3 [Gc] [FB]2 G2 | [GA]2 [FB]2 [DG]4 |] %16
V:2
 x8 | x6 G2 | x6 G2 | x8 | D3 x5 | x8 | x6 G2 | x8 | x8 | x8 | x8 | x8 | x8 | x8 | x6 G2 | x8 |] %16
V:3
 [G,B,]3 [G,B,] [D,B,]2 [D,A,]2 | [D,D]3 [D,C] [E,C]2 [E,B,]2 | [F,D]3 [F,D] [G,D]2 [E,E]2 | %3
 [C,E]2 [D,D]2 [G,B,]4 | [F,C]3 [G,B,] [D,A,]2 [D,A,]2 | [^D,B,]3 [D,B,] [E,B,]2 [E,B,]2 | %6
 [F,A,]3 [F,A,] G,2 [E,B,]2 | [_E,C]2 [D,D]2 [G,,B,]4 | [G,B,]3 [=F,B,] [F,A,]2 [G,D]2 | %9
 [A,C]3 [G,B,] [F,A,]2 [G,D]2 | [G,D]3 [F,^D] [E,E]2 [E,G]2 | [F,F]2 [F,E]2 D4 | %12
 [^G,D]3 [G,D] [A,D]2 [A,C]2 | [F,C]3 [F,C] [G,C]2 [G,B,]2 | [B,,D]3 [C,E] [D,D]2 [E,B,]2 | %15
 [C,E]2 [D,D]2 [G,,B,]4 |] %16
V:4
 x8 | x8 | x8 | x8 | x8 | x8 | x4 G,2 x2 | x8 | x8 | x8 | x8 | x4 (B,2 A,2) | x8 | x8 | x8 | x8 |] %16

